src/Pure/16/symbolic/apps/org.gnome.Settings-network-proxy-symbolic.svg

<?xml version="1.0" encoding="UTF-8" standalone="no"?>
<svg
   width="16px"
   height="16px"
   version="1.1"
   viewBox="0 0 16 16"
   id="svg1"
   sodipodi:docname="org.gnome.Settings-network-proxy-symbolic.svg"
   inkscape:version="1.4.2 (ebf0e940d0, 2025-05-08)"
   xmlns:inkscape="http://www.inkscape.org/namespaces/inkscape"
   xmlns:sodipodi="http://sodipodi.sourceforge.net/DTD/sodipodi-0.dtd"
   xmlns="http://www.w3.org/2000/svg"
   xmlns:svg="http://www.w3.org/2000/svg">
  <defs
     id="defs1">
     <style
        id="current-color-scheme"
        type="text/css">
        .ColorScheme-Text { color:#363636; }
     </style>
  </defs>
  <sodipodi:namedview
     id="namedview1"
     pagecolor="#ffffff"
     bordercolor="#000000"
     borderopacity="0.25"
     inkscape:showpageshadow="2"
     inkscape:pageopacity="0.0"
     inkscape:pagecheckerboard="0"
     inkscape:deskcolor="#d1d1d1"
     inkscape:zoom="49.75"
     inkscape:cx="7.9899497"
     inkscape:cy="8"
     inkscape:window-width="1920"
     inkscape:window-height="1011"
     inkscape:window-x="0"
     inkscape:window-y="0"
     inkscape:window-maximized="1"
     inkscape:current-layer="svg1" />
  <path
     id="path1"
     style="fill:currentColor"
     class="ColorScheme-Text"
     d="M 2.5 1 C 1.3248365 1.0029426 0.31036259 1.8239255 0.0625 2.9726562 C 0.0582053 2.9907542 0.05463975 3.0090997 0.05078125 3.0273438 C 0.03902002 3.084279 0.029248545 3.1416021 0.021484375 3.1992188 C 0.008351375 3.2980658 -2.3129646e-18 3.39788 0 3.5 C 0 3.60212 0.008352175 3.7019312 0.021484375 3.8007812 C 0.029248575 3.8583983 0.03902002 3.915721 0.05078125 3.9726562 C 0.05463955 3.9909003 0.058205 4.0092447 0.0625 4.0273438 C 0.31036259 5.1760744 1.3248365 5.9970574 2.5 6 C 2.538465 5.99828 2.5768894 5.9956775 2.6152344 5.9921875 C 2.6718014 5.9952375 2.7277062 6 2.7851562 6 L 7.5 6 L 7.5 8.5 C 7.5 9.608 6.608 10.5 5.5 10.5 L 3.9355469 10.5 C 3.7076402 9.6173205 2.9116273 9.000452 2 9 C 0.8954305 9 0 9.8954305 0 11 C 0 12.104569 0.8954305 13 2 13 C 2.9109197 12.9987 3.7058646 12.381995 3.9335938 11.5 L 5.5 11.5 C 6.26959 11.5 6.97 11.213344 7.5 10.740234 L 7.5 12.066406 C 6.6180046 12.294135 6.0013173 13.08908 6 14 C 6 15.104569 6.8954305 16 8 16 C 9.1045695 16 10 15.104569 10 14 C 9.999548 13.088373 9.3826795 12.29236 8.5 12.064453 L 8.5 10.740234 C 9.02997 11.213334 9.7304 11.5 10.5 11.5 L 12.066406 11.5 C 12.294135 12.381995 13.08908 12.998683 14 13 C 15.104569 13 16 12.104569 16 11 C 16 9.8954305 15.104569 9 14 9 C 13.08908 9.00132 12.294135 9.6180046 12.066406 10.5 L 10.5 10.5 C 9.392 10.5 8.5 9.608 8.5 8.5 L 8.5 6 L 13.214844 6 C 14.757444 6 16 4.885 16 3.5 C 16 2.115 14.757544 1 13.214844 1 L 2.7851562 1 C 2.7422352 1 2.7006361 1.0041494 2.6582031 1.0058594 C 2.6055451 1.0022394 2.552782 1.00028 2.5 1 z M 2.5 2 A 1.5 1.5 0 0 1 4 3.5 A 1.5 1.5 0 0 1 2.5 5 A 1.5 1.5 0 0 1 1 3.5 A 1.5 1.5 0 0 1 2.5 2 z M 4.4980469 2 L 13.5 2 C 14.331 2 15 2.669 15 3.5 C 15 4.331 14.331 5 13.5 5 L 8.5 5 L 7.5 5 L 4.4921875 5 C 4.8195319 4.5682393 4.9977491 4.0418179 5 3.5 C 4.9994376 2.958852 4.8232983 2.4324963 4.4980469 2 z M 2 10 C 2.5522847 10 3 10.447715 3 11 C 3 11.552285 2.5522847 12 2 12 C 1.4477153 12 1 11.552285 1 11 C 1 10.447715 1.4477153 10 2 10 z M 14 10 C 14.552285 10 15 10.447715 15 11 C 15 11.552285 14.552285 12 14 12 C 13.447715 12 13 11.552285 13 11 C 13 10.447715 13.447715 10 14 10 z M 8 13 C 8.5522847 13 9 13.447715 9 14 C 9 14.552285 8.5522847 15 8 15 C 7.4477153 15 7 14.552285 7 14 C 7 13.447715 7.4477153 13 8 13 z " />
</svg>

<svg width="16px" height="16px" version="1.1" viewBox="0 0 16 16" xmlns="http://www.w3.org/2000/svg">
 <path d="m2.5 1a2.5 2.5 0 0 0-2.4375 1.9727c-0.0042947 0.018098-0.0078605 0.036444-0.011719 0.054688a2.5 2.5 0 0 0-0.029297 0.17188c-0.013133 0.098847-0.021484 0.19866-0.021484 0.30078 0 0.10212 0.0083518 0.20193 0.021484 0.30078a2.5 2.5 0 0 0 0.029297 0.17188c0.0038583 0.018244 0.007424 0.036589 0.011719 0.054688a2.5 2.5 0 0 0 2.4375 1.9727 2.5 2.5 0 0 0 0.11523-0.0078125c0.056567 0.0030489 0.11247 0.0078125 0.16992 0.0078125h4.7148v2.5c0 1.108-0.892 2-2 2h-1.5645a2 2 0 0 0-1.9355-1.5 2 2 0 0 0-2 2 2 2 0 0 0 2 2 2 2 0 0 0 1.9336-1.5h1.5664c0.76959 0 1.47-0.28666 2-0.75977v1.3262a2 2 0 0 0-1.5 1.9336 2 2 0 0 0 2 2 2 2 0 0 0 2-2 2 2 0 0 0-1.5-1.9355v-1.3242c0.52997 0.4731 1.2304 0.75977 2 0.75977h1.5664a2 2 0 0 0 1.9336 1.5 2 2 0 0 0 2-2 2 2 0 0 0-2-2 2 2 0 0 0-1.9336 1.5h-1.5664c-1.108 0-2-0.892-2-2v-2.5h4.7148c1.5426 0 2.7852-1.115 2.7852-2.5s-1.2425-2.5-2.7852-2.5h-10.43c-0.042921 0-0.084517 0.0041513-0.12695 0.0058594a2.5 2.5 0 0 0-0.1582-0.0058594zm0 1a1.5 1.5 0 0 1 1.5 1.5 1.5 1.5 0 0 1-1.5 1.5 1.5 1.5 0 0 1-0.24414-0.021484 1.5 1.5 0 0 1-0.025391-0.0039062 1.5 1.5 0 0 1-0.23242-0.0625 1.5 1.5 0 0 1-0.023438-0.0078125 1.5 1.5 0 0 1-0.22461-0.10547 1.5 1.5 0 0 1-0.21484-0.15039 1.5 1.5 0 0 1-0.18359-0.18359 1.5 1.5 0 0 1-0.15039-0.21484 1.5 1.5 0 0 1-0.10547-0.22461 1.5 1.5 0 0 1-0.0078125-0.023438 1.5 1.5 0 0 1-0.0625-0.23242 1.5 1.5 0 0 1-0.0039062-0.025391 1.5 1.5 0 0 1-0.021484-0.24414 1.5 1.5 0 0 1 0.021484-0.24414 1.5 1.5 0 0 1 0.0039062-0.025391 1.5 1.5 0 0 1 0.0625-0.23242 1.5 1.5 0 0 1 0.0078125-0.023438 1.5 1.5 0 0 1 0.10547-0.22461 1.5 1.5 0 0 1 0.15039-0.21484 1.5 1.5 0 0 1 0.18359-0.18359 1.5 1.5 0 0 1 0.21484-0.15039 1.5 1.5 0 0 1 0.22461-0.10547 1.5 1.5 0 0 1 0.023438-0.0078125 1.5 1.5 0 0 1 0.23242-0.0625 1.5 1.5 0 0 1 0.025391-0.0039062 1.5 1.5 0 0 1 0.24414-0.021484zm1.998 0h9.002c0.831 0 1.5 0.669 1.5 1.5s-0.669 1.5-1.5 1.5h-5-1-3.0078a2.5 2.5 0 0 0 0.50781-1.5 2.5 2.5 0 0 0-0.50195-1.5zm-2.498 8a1 1 0 0 1 1 1 1 1 0 0 1-1 1 1 1 0 0 1-1-1 1 1 0 0 1 1-1zm12 0a1 1 0 0 1 1 1 1 1 0 0 1-1 1 1 1 0 0 1-1-1 1 1 0 0 1 1-1zm-6 3a1 1 0 0 1 1 1 1 1 0 0 1-1 1 1 1 0 0 1-1-1 1 1 0 0 1 1-1z" fill="#363636" stroke-width="0" style="paint-order:stroke fill markers"/>
</svg>
